X: 31252
T: Paddy Fahy's
R: jig
M: 6/8
K: Cmajor
"C"(3c/d/c/Bc "G"dcB|"C"cGE CEG|"Dm7"FEF DEF|"G"GAB "C"ced|
(3c/d/c/Bc "G"dGB|"Dm7"cFD "C"GEC|"F"F(3G/F/E/F "G"DGF|"C"ECC C2 z:|
|:"C"c3 g^fg|ea^f gec|"F"A2 f fef|"Dm7"Acf afd|
"C"c(3d/c/B/c g^fg|ea^f g2 a|"C"(3g/a/g/ec "G7"fdB|"C"cGE CEG:|

